static/images/pieces/mansindam/tomato/wk_reversed.svg

<svg height="52.157" width="52.157" xmlns="http://www.w3.org/2000/svg"><path d="m39.071206 3.9201414-22.551348 7.3933456-10.519858 67.017993 66.141733-.000273-10.51989-67.017953z" fill="#ede9dd" opacity=".9801" stroke="#35342f" stroke-width="1.58228" transform="matrix(-.6 0 0 -.6 49.52102 50.741558)"/><g style="fill:none;fill-rule:evenodd;stroke-width:1.5;stroke-linecap:round;stroke-linejoin:round;stroke:#393831" transform="matrix(-.89583508 0 0 -.89583508 46.206655 44.149341)"><path d="m22.5 11.63v-5.63m-2.5 2h5" stroke-linejoin="miter"/><path d="m22.5 25s4.5-7.5 3-10.5c0 0-1-2.5-3-2.5s-3 2.5-3 2.5c-1.5 3 3 10.5 3 10.5" fill="#ede9dd" stroke-linecap="butt" stroke-linejoin="miter"/><path d="m11.5 37c5.5 3.5 15.5 3.5 21 0v-7s9-4.5 6-10.5c-4-6.5-13.5-3.5-16 4v3.5-3.5c-3.5-7.5-13-10.5-16-4-3 6 5 10 5 10z" fill="#ede9dd"/><path d="m11.5 30c5.5-3 15.5-3 21 0m-21 3.5c5.5-3 15.5-3 21 0m-21 3.5c5.5-3 15.5-3 21 0"/></g></svg>

<?xml version="1.0" encoding="UTF-8" standalone="no"?>
<svg
   width="52.157"
   height="52.157"
   version="1.1"
   id="svg98222"
   sodipodi:docname="King White DOWN.svg"
   inkscape:version="1.3 (0e150ed6c4, 2023-07-21)"
   xml:space="preserve"
   xmlns:inkscape="http://www.inkscape.org/namespaces/inkscape"
   xmlns:sodipodi="http://sodipodi.sourceforge.net/DTD/sodipodi-0.dtd"
   xmlns="http://www.w3.org/2000/svg"
   xmlns:svg="http://www.w3.org/2000/svg"
   xmlns:rdf="http://www.w3.org/1999/02/22-rdf-syntax-ns#"
   xmlns:cc="http://creativecommons.org/ns#"
   xmlns:dc="http://purl.org/dc/elements/1.1/"><metadata
     id="metadata98228"><rdf:RDF><cc:Work
         rdf:about=""><dc:format>image/svg+xml</dc:format><dc:type
           rdf:resource="http://purl.org/dc/dcmitype/StillImage" /></cc:Work></rdf:RDF></metadata><defs
     id="defs98226" /><sodipodi:namedview
     pagecolor="#ffffff"
     bordercolor="#666666"
     borderopacity="1"
     objecttolerance="10"
     gridtolerance="10"
     guidetolerance="10"
     inkscape:pageopacity="0"
     inkscape:pageshadow="2"
     inkscape:window-width="3840"
     inkscape:window-height="2036"
     id="namedview98224"
     showgrid="false"
     inkscape:zoom="13.665732"
     inkscape:cx="38.380673"
     inkscape:cy="8.6347366"
     inkscape:window-x="-12"
     inkscape:window-y="-12"
     inkscape:window-maximized="1"
     inkscape:current-layer="svg98222"
     inkscape:showpageshadow="2"
     inkscape:pagecheckerboard="0"
     inkscape:deskcolor="#d1d1d1" /><g
     transform="rotate(-180,26.134577,26.903109)"
     id="g4297"
     style="fill:#e3d9b9;fill-opacity:0.968627;stroke:#35342f;stroke-opacity:1"><g
       id="g3979"
       style="opacity:0.99;fill:#e3d9b9;fill-opacity:0.968627;stroke:#35342f;stroke-opacity:1"
       transform="matrix(0.6,0,0,0.6,2.7481337,3.0646604)"><path
         style="opacity:0.99;fill:#ede9dd;fill-opacity:1;stroke:#35342f;stroke-width:1.58228;stroke-opacity:1"
         inkscape:connector-curvature="0"
         id="path5763-7"
         d="M 39.071206,3.9201414 16.519858,11.313487 6,78.33148 72.141733,78.331207 61.621843,11.313254 Z"
         sodipodi:nodetypes="cccccc" /></g></g><g
     fill="none"
     fill-rule="evenodd"
     stroke="#000000"
     stroke-width="1.5"
     stroke-linecap="round"
     stroke-linejoin="round"
     id="g4"
     transform="matrix(-0.89583508,0,0,-0.89583508,46.206655,44.149341)"><path
       d="M 22.5,11.63 V 6 M 20,8 h 5"
       stroke-linejoin="miter"
       id="path1"
       style="stroke:#393831;stroke-opacity:1" /><path
       d="m 22.5,25 c 0,0 4.5,-7.5 3,-10.5 0,0 -1,-2.5 -3,-2.5 -2,0 -3,2.5 -3,2.5 -1.5,3 3,10.5 3,10.5"
       fill="#ffffff"
       stroke-linecap="butt"
       stroke-linejoin="miter"
       id="path2-6"
       style="fill:#ede9dd;fill-opacity:1;stroke:#393831;stroke-opacity:1" /><path
       d="m 11.5,37 c 5.5,3.5 15.5,3.5 21,0 v -7 c 0,0 9,-4.5 6,-10.5 -4,-6.5 -13.5,-3.5 -16,4 V 27 23.5 C 19,16 9.5,13 6.5,19.5 c -3,6 5,10 5,10 z"
       fill="#ffffff"
       id="path3-2"
       style="fill:#ede9dd;fill-opacity:1;stroke:#393831;stroke-opacity:1" /><path
       d="m 11.5,30 c 5.5,-3 15.5,-3 21,0 m -21,3.5 c 5.5,-3 15.5,-3 21,0 m -21,3.5 c 5.5,-3 15.5,-3 21,0"
       id="path4-5"
       style="stroke:#393831;stroke-opacity:1" /></g></svg>
